build/documents/FileTXTOutline.svg

<svg xmlns="http://www.w3.org/2000/svg" fill="none" viewBox="0 0 24 24" focusable="false"><path d="M0 0H24V24H0z"/><path fill="#74767B" fill-rule="evenodd" d="M5 11L5 6C5 4.34315 6.34315 3 8 3L13.042 3C13.8752 3 14.671 3.34655 15.2385 3.95662L18.1965 7.13629C18.7129 7.69141 19 8.42148 19 9.17966L19 11C20.6569 11 22 12.3431 22 14L22 18C22 19.6569 20.6569 21 19 21L5 21C3.34315 21 2 19.6569 2 18L2 14C2 12.3431 3.34315 11 5 11ZM13.042 4.3L8 4.3C7.06112 4.3 6.3 5.06112 6.3 6L6.3 11L17.7 11L17.7 9.17966C17.7 9.11913 17.6968 9.05892 17.6904 8.99925L15.2999 8.99926C14.223 8.99926 13.3499 8.12621 13.3499 7.04926L13.3499 4.32811C13.2491 4.30954 13.1461 4.3 13.042 4.3ZM14.6499 5.23254L16.9447 7.69926L15.2999 7.69926C14.9409 7.69926 14.6499 7.40824 14.6499 7.04926L14.6499 5.23254ZM5 12.3L19 12.3C19.9389 12.3 20.7 13.0611 20.7 14L20.7 18C20.7 18.9389 19.9389 19.7 19 19.7L5 19.7C4.06112 19.7 3.3 18.9389 3.3 18L3.3 14C3.3 13.0611 4.06112 12.3 5 12.3ZM11.2938 13.8501C11.0853 13.5579 10.6794 13.49 10.3871 13.6985C10.0949 13.9069 10.027 14.3129 10.2355 14.6051L11.2306 16L10.2355 17.3948C10.027 17.6871 10.0949 18.093 10.3871 18.3015C10.6793 18.51 11.0853 18.4421 11.2937 18.1498L12.029 17.1192L12.7643 18.1498C12.9728 18.4421 13.3787 18.51 13.6709 18.3015C13.9632 18.093 14.0311 17.6871 13.8226 17.3948L12.8275 16L13.8226 14.6051C14.0311 14.3129 13.9632 13.9069 13.6709 13.6985C13.3787 13.49 12.9728 13.5579 12.7643 13.8501L12.029 14.8807L11.2938 13.8501ZM8.34239 14.8941C8.70138 14.8941 8.9924 14.6031 8.9924 14.2441C8.9924 13.8851 8.70138 13.5941 8.34239 13.5941L5.92041 13.5941C5.56143 13.5941 5.27041 13.8851 5.27041 14.2441C5.27041 14.6031 5.56143 14.8941 5.92041 14.8941L6.48146 14.8941L6.48146 17.7614C6.48146 18.1203 6.77247 18.4114 7.13146 18.4114C7.49044 18.4114 7.78146 18.1203 7.78146 17.7614L7.78146 14.8941L8.34239 14.8941ZM18.0796 14.8941C18.4386 14.8941 18.7296 14.6031 18.7296 14.2441C18.7296 13.8851 18.4386 13.5941 18.0796 13.5941L15.6576 13.5941C15.2986 13.5941 15.0076 13.8851 15.0076 14.2441C15.0076 14.6031 15.2986 14.8941 15.6576 14.8941L16.2187 14.8941L16.2187 17.7614C16.2187 18.1203 16.5097 18.4114 16.8687 18.4114C17.2276 18.4114 17.5187 18.1203 17.5187 17.7614L17.5187 14.8941L18.0796 14.8941Z"/></svg>

<svg xmlns="http://www.w3.org/2000/svg" fill="none" viewBox="0 0 24 24" focusable="false"><path fill="#74767B" fill-rule="evenodd" d="M5 11V6c0-1.66 1.34-3 3-3h5.04c.83 0 1.63.34 2.19.95l2.96 3.18c.52.56.81 1.29.81 2.04V11c1.65 0 3 1.34 3 3v4c0 1.65-1.35 3-3 3H5c-1.66 0-3-1.35-3-3v-4c0-1.66 1.34-3 3-3m8.04-6.71H8c-.94 0-1.7.77-1.7 1.71v5h11.4V9.17c0-.06-.01-.12-.01-.18h-2.4c-1.07 0-1.95-.87-1.95-1.95V4.32q-.15-.03-.3-.03m1.6.94 2.3 2.46h-1.65c-.35 0-.65-.29-.65-.65zM5 12.3h14c.93 0 1.7.76 1.7 1.7v4c0 .93-.77 1.7-1.7 1.7H5c-.94 0-1.7-.77-1.7-1.7v-4c0-.94.76-1.7 1.7-1.7m6.29 1.55a.657.657 0 0 0-.91-.16c-.29.21-.36.62-.15.91l1 1.4-1 1.39a.648.648 0 1 0 1.06.75l.73-1.03.74 1.03c.21.3.61.37.91.16.29-.21.36-.62.15-.91l-1-1.39 1-1.4c.21-.29.14-.7-.15-.91-.3-.2-.7-.14-.91.16l-.74 1.03zm-2.3.39c0 .36-.29.65-.65.65h-.56v2.87c0 .36-.29.65-.65.65s-.65-.29-.65-.65v-2.87h-.56c-.36 0-.65-.29-.65-.65s.29-.65.65-.65h2.42c.36 0 .65.29.65.65m9.08.65c.36 0 .65-.29.65-.65s-.29-.65-.65-.65h-2.42c-.36 0-.65.29-.65.65s.29.65.65.65h.56v2.87c0 .36.29.65.65.65s.65-.29.65-.65v-2.87z"/></svg>
